X: 18
T:Jack Ffranklans's Hornpipe
M:3/2
L:1/4
S:Marsden
Z:ps
K:F
F2ED/C/DA,|Cc2GE/F/ G/E/|AG/F/ ED/C/DA,|Dd2FED||
dF/G/AG/F/ E>D|ec2GEC|dF/G/AG/F/E>D|fd2FED||
df2ge>d|cg2fed/c/|a/g/fg/f/e^c>B|Ad2FED||
f>g a/g/fb/a/g|e>f g/a/g/f/ed/c/|a/g/fg/f/ec>B Ad2FED||
f/e/d/c/ d/c/B/A/ B/A/G/F/|Ee2GEC|f/e/d/c/ d/c/B/A/ B/A/ G/F/|Ad2FED||
D/E/F/G/ A/B/ A/F/ A/B/ A/F/ |Ec2GE>C|D/E/F/G/ A/B/ A/F/ A/B/ A/F/  E/F/
 G/E/|A/B/ A/F/ A/B/ A/F/ E/F/G/E/||
D/E/F/G/ A/B/ A/F/ A/B/ A/F/ |Ec2GE>C|D/F/Dd/B/z/g/ c3/4A/4 z/F/|Ad2FED|
|
dFAFdF|Ec2GEC|dFAFdF|Ad2FED||
df2g/f/e>d|cg2fe/f/g/e/|afgefd|Ad2FED||
fagcB>A|Gc2GED|fag/e/ d/c/ d/c/B/A/|Ad2AED||
DFEGAA,|CcGcE>C|DFCEDA,|Dd2FED||
